X: 1
T: O'Boobigan's
M: 4/4
L: 1/8
R: daggy barndancey type thing that Morris bands would totally dig
K: Gmaj
(3DEF|G2 G2 A2 A>B | c2 B2 A2 D2 | B>A G>F E2 E2 | A>G F>E D2 D2 |
G2 G2 A2 A>B | c2 B2 A2 D2 | B>A G>F E>A F>D | G2 B2 G2 :|
|: (3def | g2 a>g f2 d2 | e>d c>e d2 (3def | g2 e>g f2 d2 | g>a b>a g2 (3def |
g2 a>g f2 d2 | e>d c>e d4 | B>A G>F E>A F>D | G2 B2 G2 :|
